X:1
L:1/8
M:4/4
K:F
 C | F>GFA cAAf | F>GFA BGGA | F>GFA cAAc | dfeg af f :| g | a>gfc A(cc)f/g/ | a>gfc e(gg)f/g/ | 
 a>gfc (d/e/f) cA | (B/c/d) GB A(FF)(f/g/) | a>gfc A(cc)f/g/ | a>gfc e(gg)f/g/ | a>fg>e f>cf>A | 
 (B/c/d) (G>B) AF F ||
